X: 43660
T: Ølland
R: waltz
M: 3/4
K: Ddorian
F2 FG FE|D2 DE FG|A2 c2- cB|A4-:|
A2 FA FA|F2 AF Ac|B2 GB GB|G2 BG (3Bcd|
A2- AG FE|DE- E2 F2|E2 C2- CC|D4:|

